src/main/resources/OpenAI_80px.svg

<?xml version="1.0" encoding="UTF-8" standalone="no" ?>
<svg xmlns="http://www.w3.org/2000/svg" xmlns:xlink="http://www.w3.org/1999/xlink" version="1.1" width="1080" height="1080" viewBox="0 0 1080 1080" xml:space="preserve">
<desc>Created with Fabric.js 5.2.4</desc>
<defs>
</defs>
<g transform="matrix(1 0 0 1 540 540)" id="d19ff3ee-28a1-4d6e-971a-98586fa6e382"  >
<rect style="stroke: none; stroke-width: 1; stroke-dasharray: none; stroke-linecap: butt; stroke-dashoffset: 0; stroke-linejoin: miter; stroke-miterlimit: 4; fill: rgb(255,255,255); fill-rule: nonzero; opacity: 1; visibility: hidden;" vector-effect="non-scaling-stroke"  x="-540" y="-540" rx="0" ry="0" width="1080" height="1080" />
</g>
<g transform="matrix(1 0 0 1 540 540)" id="b5ab4811-2673-405b-ae95-14c687e63c4c"  >
</g>
<g transform="matrix(35.02 0 0 35.02 540 540)"  >
<path style="stroke: none; stroke-width: 1; stroke-dasharray: none; stroke-linecap: butt; stroke-dashoffset: 0; stroke-linejoin: miter; stroke-miterlimit: 4; fill: rgb(0,0,0); fill-rule: nonzero; opacity: 1;" vector-effect="non-scaling-stroke"  transform=" translate(-14.56, -14.76)" d="M 27.21 12.08 C 27.880000000000003 10.07 27.650000000000002 7.87 26.580000000000002 6.04 C 24.970000000000002 3.24 21.730000000000004 1.7999999999999998 18.57 2.47 C 17.16 0.89 15.14 -0.01 13.02 0 C 9.79 0 6.92 2.08 5.92 5.15 C 3.84 5.58 2.05 6.880000000000001 1 8.72 C -0.6200000000000001 11.52 -0.25 15.040000000000001 1.92 17.44 C 1.25 19.450000000000003 1.48 21.650000000000002 2.55 23.470000000000002 C 4.16 26.28 7.3999999999999995 27.720000000000002 10.57 27.050000000000004 C 11.97 28.630000000000003 13.99 29.540000000000006 16.11 29.530000000000005 C 19.34 29.530000000000005 22.21 27.450000000000003 23.21 24.380000000000003 C 25.29 23.950000000000003 27.080000000000002 22.650000000000002 28.12 20.810000000000002 C 29.75 18.01 29.380000000000003 14.490000000000002 27.21 12.090000000000002 Z M 24.91 7.01 C 25.55 8.129999999999999 25.79 9.44 25.57 10.71 C 25.53 10.680000000000001 25.45 10.64 25.4 10.610000000000001 L 19.52 7.210000000000001 C 19.22 7.040000000000001 18.849999999999998 7.040000000000001 18.55 7.210000000000001 L 11.66 11.190000000000001 L 11.66 8.270000000000001 L 17.35 4.980000000000001 C 20 3.450000000000001 23.380000000000003 4.360000000000001 24.91 7.010000000000002 Z M 11.66 13.08 L 14.56 11.4 L 17.46 13.08 L 17.46 16.43 L 14.56 18.11 L 11.66 16.43 L 11.66 13.08 Z M 13.01 1.93 C 14.31 1.93 15.559999999999999 2.38 16.56 3.21 C 16.52 3.23 16.439999999999998 3.28 16.38 3.31 L 10.5 6.7 C 10.2 6.87 10.02 7.19 10.02 7.54 L 10.02 15.5 L 7.49 14.04 L 7.49 7.46 C 7.49 4.4 9.96 1.9299999999999997 13.02 1.92 Z M 2.68 9.69 L 2.68 9.69 C 3.33 8.57 4.34 7.709999999999999 5.5600000000000005 7.26 L 5.5600000000000005 14.25 C 5.5600000000000005 14.6 5.74 14.91 6.040000000000001 15.09 L 12.920000000000002 19.06 L 10.380000000000003 20.529999999999998 L 4.700000000000003 17.249999999999996 C 2.0600000000000027 15.719999999999997 1.150000000000003 12.339999999999996 2.680000000000003 9.689999999999998 Z M 4.23 22.52 L 4.23 22.52 C 3.5800000000000005 21.41 3.3500000000000005 20.09 3.5700000000000003 18.82 C 3.6100000000000003 18.85 3.6900000000000004 18.89 3.74 18.92 L 9.620000000000001 22.32 C 9.920000000000002 22.490000000000002 10.290000000000001 22.490000000000002 10.590000000000002 22.32 L 17.470000000000002 18.34 L 17.470000000000002 21.259999999999998 L 11.780000000000001 24.54 C 9.13 26.06 5.750000000000001 25.16 4.2200000000000015 22.52 Z M 16.12 27.6 C 14.830000000000002 27.6 13.57 27.150000000000002 12.580000000000002 26.32 C 12.620000000000001 26.3 12.710000000000003 26.25 12.760000000000002 26.22 L 18.64 22.83 C 18.94 22.659999999999997 19.13 22.34 19.12 21.99 L 19.12 14.04 L 21.650000000000002 15.5 L 21.650000000000002 22.07 C 21.650000000000002 25.13 19.17 27.61 16.12 27.61 Z M 26.46 19.840000000000003 C 25.810000000000002 20.960000000000004 24.79 21.820000000000004 23.580000000000002 22.260000000000005 L 23.580000000000002 15.270000000000005 C 23.580000000000002 14.920000000000005 23.400000000000002 14.600000000000005 23.1 14.430000000000005 L 23.1 14.430000000000005 L 16.21 10.450000000000005 L 18.740000000000002 8.990000000000006 L 24.430000000000003 12.270000000000005 C 27.080000000000002 13.800000000000004 27.980000000000004 17.180000000000007 26.450000000000003 19.830000000000005 Z" stroke-linecap="round" />
</g>
</svg>

<svg id="openai-horizontal" xmlns="http://www.w3.org/2000/svg" viewBox="0 0 120 29.53">
  <path
      d="M40.7,6.98s-.05,0-.07,0c-.02,0-.05,0-.07,0-4.67,0-7.58,2.91-7.58,7.6v2.53c0,4.69,2.9,7.6,7.58,7.6,.02,0,.05,0,.07,0,.02,0,.05,0,.07,0,4.67,0,7.58-2.91,7.58-7.6v-2.53c0-4.69-2.91-7.6-7.58-7.6Zm4.31,10.31c0,3.08-1.6,4.86-4.38,4.89-2.78-.03-4.38-1.81-4.38-4.89v-2.88c0-3.08,1.6-4.86,4.38-4.89,2.78,.03,4.38,1.81,4.38,4.89v2.88Zm40.57-5.79s-.06,0-.09,0c-.02,0-.03,0-.05,0-1.77,0-3.03,.6-3.65,1.75l-.19,.35v-1.8h-3.02v12.56h3.17v-7.48c0-1.76,.95-2.77,2.59-2.8,1.57,.03,2.47,1.02,2.47,2.73v7.55h3.17v-8.09c0-2.99-1.64-4.77-4.39-4.77Zm34.42-1.77v-2.4h-10.46v2.4h3.67v12.22h-3.67v2.4h10.46v-2.4h-3.67V9.73h3.67Zm-18.75-2.4h0s-3.28,0-3.28,0l-6.1,17.04h3.43l1.17-3.65h6.66v.04s1.17,3.62,1.17,3.62h3.43l-6.11-17.04h-.36Zm-4.03,10.98l2.57-8.05,2.55,8.05h-5.12Zm-39.45-6.81s-.05,0-.07,0c-.03,0-.05,0-.07,0-1.59,0-2.96,.66-3.68,1.76l-.18,.28v-1.74h-3.02V28.69h3.17v-5.9l.18,.27c.68,1.01,2.01,1.61,3.56,1.61,.03,0,.05,0,.08,0,.02,0,.04,0,.07,0,2.61,0,5.24-1.7,5.24-5.51v-2.14c0-2.74-1.62-5.51-5.26-5.51Zm2.1,7.5c0,2-1.15,3.24-3.01,3.28-1.73-.03-2.94-1.35-2.94-3.23v-1.89c0-1.9,1.22-3.24,2.97-3.28,1.84,.03,2.98,1.28,2.98,3.28v1.84Zm11.05-7.5h0c-.06,0-.12,.01-.18,.01-.06,0-.12-.01-.18-.01h0c-3.57,0-5.78,2.23-5.78,5.81v1.76c0,3.45,2.24,5.59,5.83,5.59,.08,0,.15,0,.22-.01,.05,0,.09,.01,.14,.01,2.41,0,4.09-.88,5.16-2.7l-2.13-1.23c-.71,1.05-1.66,1.84-3.02,1.84-1.82,0-2.91-1.12-2.91-3.01v-.5h8.44v-2.08c0-3.34-2.19-5.49-5.59-5.49Zm-2.86,5.54v-.3c0-2,.95-3.12,2.68-3.2,1.66,.08,2.66,1.18,2.66,2.99v.5s-5.34,0-5.34,0Z"></path>
  <path
      d="M27.21,12.08c.67-2.01,.44-4.21-.63-6.04-1.61-2.8-4.85-4.24-8.01-3.57C17.16,.89,15.14-.01,13.02,0c-3.23,0-6.1,2.08-7.1,5.15-2.08,.43-3.87,1.73-4.92,3.57-1.62,2.8-1.25,6.32,.92,8.72-.67,2.01-.44,4.21,.63,6.03,1.61,2.81,4.85,4.25,8.02,3.58,1.4,1.58,3.42,2.49,5.54,2.48,3.23,0,6.1-2.08,7.1-5.15,2.08-.43,3.87-1.73,4.91-3.57,1.63-2.8,1.26-6.32-.91-8.72Zm-2.3-5.07c.64,1.12,.88,2.43,.66,3.7-.04-.03-.12-.07-.17-.1l-5.88-3.4c-.3-.17-.67-.17-.97,0l-6.89,3.98v-2.92l5.69-3.29c2.65-1.53,6.03-.62,7.56,2.03Zm-13.25,6.07l2.9-1.68,2.9,1.68v3.35l-2.9,1.68-2.9-1.68v-3.35ZM13.01,1.93c1.3,0,2.55,.45,3.55,1.28-.04,.02-.12,.07-.18,.1l-5.88,3.39c-.3,.17-.48,.49-.48,.84v7.96l-2.53-1.46V7.46c0-3.06,2.47-5.53,5.53-5.54ZM2.68,9.69h0c.65-1.12,1.66-1.98,2.88-2.43v6.99c0,.35,.18,.66,.48,.84l6.88,3.97-2.54,1.47-5.68-3.28c-2.64-1.53-3.55-4.91-2.02-7.56Zm1.55,12.83h0c-.65-1.11-.88-2.43-.66-3.7,.04,.03,.12,.07,.17,.1l5.88,3.4c.3,.17,.67,.17,.97,0l6.88-3.98v2.92l-5.69,3.28c-2.65,1.52-6.03,.62-7.56-2.02Zm11.89,5.08c-1.29,0-2.55-.45-3.54-1.28,.04-.02,.13-.07,.18-.1l5.88-3.39c.3-.17,.49-.49,.48-.84v-7.95l2.53,1.46v6.57c0,3.06-2.48,5.54-5.53,5.54Zm10.34-7.76c-.65,1.12-1.67,1.98-2.88,2.42v-6.99c0-.35-.18-.67-.48-.84h0l-6.89-3.98,2.53-1.46,5.69,3.28c2.65,1.53,3.55,4.91,2.02,7.56Z"></path>
</svg>
